X:1
T:Title
L:1/8
M:4/4
I:linebreak $
K:C
V:1 treble nm="Voice"
V:1
"C" G2 e2 e/f/e de | g2 c2 e/f/e dc |"G" Bcde"F" fefg | a3 e"G" g2 A/B/A |"C" G2 e2 e/f/e de | %5
 g2 c2 e/f/e dc |"G" Bcde"F" fd"G"Bc |1 d3 e"C" c2 A/B/A :|2 d3 e"C" c2 z c- |[M:2/4] cc de |: %10
[M:4/4]"F" f2 dd z edc |"C" e2 cc z cde |"F" fefg a3 e |"G" g3 g"C" z cde |"F" f2 dd z edc | %15
"C" e2 cc z cde |"F" fd"G"Bd d3 e |1"C" c3 c z cde :|2"C" c4- c z A/B/A |] %19
